!!!COM:	Josquin des Prez
!!!CDT:	~1450-1521/08/27
!!!OTL@@LAT:	O virgo prudentissima / Beata mater
!!!OTL2@@LAT: Audi virgo puerpera
!!!AGN:	Motet
!!!SCT:	NJE 24.9
!!!SCA:	New Josquin Edition 24.9
!!!voices:	6
**kern	**kern	**kern	**kern	**kern	**kern
*staff6	*staff5	*staff4	*staff3	*staff2	*staff1
*Ivox	*Ivox	*Ivox	*Ivox	*Ivox	*Ivox
*I"Bassus	*I"Tenor1	*I"Tenor2	*I"Altus2	*I"Altus1	*I"Superius
*I'B	*I'T1	*I'T2	*I'A2	*I'A1	*I'S
*>[A,B]	*>[A,B]	*>[A,B]	*>[A,B]	*>[A,B]	*>[A,B]
*>Part1[A]	*>Part1[A]	*>Part1[A]	*>Part1[A]	*>Part1[A]	*>Part1[A]
*>Part2[B]	*>Part2[B]	*>Part2[B]	*>Part2[B]	*>Part2[B]	*>Part2[B]
*clefF4	*clefGv2	*clefGv2	*clefGv2	*clefGv2	*clefG2
*k[b-]	*k[b-]	*k[]	*k[b-]	*k[b-]	*k[b-]
*>A	*>A	*>A	*>A	*>A	*>A
*M2/1	*M2/1	*M2/1	*M2/1	*M2/1	*M2/1
*met(C|)	*met(C|)	*met(C|)	*met(C|)	*met(C|)	*met(C|)
=1-	=1-	=1-	=1-	=1-	=1-
!	!LO:TX:Z=10:t=Canon at the upper fifth	!	!	!	!
0r	0r	0r	0r	1r	0g
.	.	.	.	[1G	.
=2	=2	=2	=2	=2	=2
0r	0r	0r	0r	1G]	1g
.	.	.	.	1G	1g
=3	=3	=3	=3	=3	=3
0r	0r	0r	0G	1G	1b-
.	.	.	.	1B-	1g
=4	=4	=4	=4	=4	=4
0r	0r	0r	1G	1G	1.b-
.	.	.	1G	[1B-	.
.	.	.	.	.	2cc\
=5	=5	=5	=5	=5	=5
0GG	0r	0r	1B-	2B-\]	[0dd
.	.	.	.	4A/	.
.	.	.	.	4G/	.
.	.	.	1G	2.B-\	.
.	.	.	.	4c\	.
=6	=6	=6	=6	=6	=6
1GG	0r	0r	1.B-	2d\	0dd]
.	.	.	.	1G	.
1GG	.	.	.	.	.
.	.	.	2c\	4F/	.
.	.	.	.	4E/	.
=7	=7	=7	=7	=7	=7
!!linebreak:default
1BB-	0r	0r	1d	0D	0r
1GG	.	.	2r	.	.
.	.	.	[2d\	.	.
=8	=8	=8	=8	=8	=8
1.BB-	0r	0r	4d\]	0d	0r
.	.	.	4c\	.	.
.	.	.	1B-	.	.
2C/	.	.	4A/	.	.
.	.	.	4G/	.	.
=9	=9	=9	=9	=9	=9
[0D	0r	0r	0F	1r	1r
.	.	.	.	1f	1a
=10	=10	=10	=10	=10	=10
0D]	0r	0r	0r	1f	1a
.	.	.	.	1f	1a
=11	=11	=11	=11	=11	=11
0r	0r	0r	0r	1g	1b-
.	.	.	.	2f\	2a/
.	.	.	.	2g\	2b-\
=12	=12	=12	=12	=12	=12
0r	0r	0r	0r	2f\	2a/
.	.	.	.	1g	1b-
.	.	.	.	4f\	4a/
.	.	.	.	4e\	4g/
=13	=13	=13	=13	=13	=13
!!pagebreak:default
1r	0r	0r	0d	0f	0a
1D	.	.	.	.	.
=14	=14	=14	=14	=14	=14
1F	0r	0r	1c	0r	0r
1F	.	.	1A	.	.
=15	=15	=15	=15	=15	=15
1G	0r	0r	1B-	0r	0r
2F\	.	.	2A/	.	.
2G\	.	.	2B-\	.	.
=16	=16	=16	=16	=16	=16
2F\	0r	0r	2A/	0r	0r
1G	.	.	1B-	.	.
4F\	.	.	4A/	.	.
4E\	.	.	4G/	.	.
=17	=17	=17	=17	=17	=17
0D	0r	0r	0A	1r	1r
.	.	.	.	1f	1a
=18	=18	=18	=18	=18	=18
0r	0r	0r	0r	1g	1b-
.	.	.	.	2f\	2a/
.	.	.	.	[2g\	[2b-\
=19	=19	=19	=19	=19	=19
!!linebreak:default
0r	0r	0r	0r	2g\]	2b-\]
.	.	.	.	4f\	4a/
.	.	.	.	4e\	4g/
.	.	.	.	2d\	2b-\
.	.	.	.	2f\	2a/
=20	=20	=20	=20	=20	=20
0r	0r	0r	1r	2e\	2g/
.	.	.	.	1d	2f/
.	.	.	1A	.	1e
.	.	.	.	2c#i\	.
=21	=21	=21	=21	=21	=21
1r	0r	0r	1B-	0d	0d
1D	.	.	2A/	.	.
.	.	.	[2B-\	.	.
=22	=22	=22	=22	=22	=22
1E	0r	0r	2B-\]	0r	0r
.	.	.	4A/	.	.
.	.	.	4G/	.	.
1D	.	.	2B-\	.	.
.	.	.	2A/	.	.
=23	=23	=23	=23	=23	=23
1.G	0r	0r	4G/	0r	0r
.	.	.	4A/	.	.
.	.	.	4B-\	.	.
.	.	.	4c\	.	.
.	.	.	2d\	.	.
2G\	.	.	[2e\	.	.
=24	=24	=24	=24	=24	=24
2.F\	0r	0r	4e\]	0r	0r
.	.	.	4d\	.	.
.	.	.	1d	.	.
4D\	.	.	.	.	.
1E	.	.	.	.	.
.	.	.	2c#i\	.	.
=25	=25	=25	=25	=25	=25
!!pagebreak:default
0D	0r	0r	0d	1r	1r
.	.	.	.	1f	1a
=26	=26	=26	=26	=26	=26
0r	0r	0r	0r	1g	1b-
.	.	.	.	1g	1b-
=27	=27	=27	=27	=27	=27
0r	0r	0r	0r	2.f\	2.a/
.	.	.	.	4e\	4cc\
.	.	.	.	2d\	2b-\
.	.	.	.	2c\	[2a/
=28	=28	=28	=28	=28	=28
1r	0r	0r	1r	2.B-\	4a/]
.	.	.	.	.	4g/
.	.	.	.	.	2.g/
.	.	.	.	4G/	.
1D	.	.	1A	1A	.
.	.	.	.	.	4f#i/
.	.	.	.	.	4f#i/
.	.	.	.	.	4e/
=29	=29	=29	=29	=29	=29
1G	0r	0r	1B-	0G	0g
1G	.	.	1B-	.	.
=30	=30	=30	=30	=30	=30
2.F\	0r	0r	2.A/	0r	0r
4E\	.	.	4c\	.	.
2D\	.	.	2B-\	.	.
2C/	.	.	[2A/	.	.
=31	=31	=31	=31	=31	=31
!!linebreak:default
2.BB-/	0r	0r	2A/]	0r	0r
.	.	.	2.G/	.	.
4GG/	.	.	.	.	.
1AA	.	.	.	.	.
.	.	.	4F#i/	.	.
.	.	.	4F#i/	.	.
.	.	.	4E/	.	.
=32	=32	=32	=32	=32	=32
[0GG	0r	0r	0G	1r	0r
.	.	.	.	1d	.
=33	=33	=33	=33	=33	=33
0GG]	0G	0r	2r	1d	1r
.	.	.	2d\	.	.
.	.	.	1d	1G	1dd
=34	=34	=34	=34	=34	=34
0r	0G	0r	1G	2r	1dd
.	.	.	.	2d\	.
.	.	.	2r	1d	1g
.	.	.	2d\	.	.
=35	=35	=35	=35	=35	=35
1r	0B-	0d	1d	1G	1dd
1G	.	.	2G/	2d\	2dd\
.	.	.	[2B-\	2G/	[2dd\
=36	=36	=36	=36	=36	=36
1G	0G	0d	4B-\]	2.B-\	4dd\]
.	.	.	4c\	.	4cc\
.	.	.	2d\	.	4b-\
.	.	.	.	4c\	4a/
1GG	.	.	2G/	2d\	2b-\
.	.	.	[2d\	2G/	2b-\
=37	=37	=37	=37	=37	=37
!!pagebreak:default
1D	0F	0f	2d\]	2A/	1a
.	.	.	4c\	2D/	.
.	.	.	4B-\	.	.
2D\	.	.	2A/	2F/	1r
[2D\	.	.	[2B-\	2D/	.
=38	=38	=38	=38	=38	=38
4D\]	0r	0d	4B-\]	4F/	0r
4C/	.	.	4A/	4E/	.
4BB-/	.	.	1A	4D/	.
4AA/	.	.	.	4C/	.
2BB-/	.	.	.	2.D/	.
2BB-/	.	.	2G/	.	.
.	.	.	.	4E/	.
=39	=39	=39	=39	=39	=39
0AA	0r	0c	1A	2.F/	0r
.	.	.	.	4G/	.
.	.	.	2r	1E	.
.	.	.	2c\	.	.
=40	=40	=40	=40	=40	=40
0r	0G	0r	1d	2r	1r
.	.	.	.	2d\	.
.	.	.	1G	1d	2r
.	.	.	.	.	2dd\
=41	=41	=41	=41	=41	=41
0r	1G	0r	2r	1G	1dd
.	.	.	2d\	.	.
.	1G	.	1d	2r	1g
.	.	.	.	2d\	.
=42	=42	=42	=42	=42	=42
1r	0B-	0d	1G	1d	1dd
1G	.	.	2d\	[1G	2dd\
.	.	.	2G/	.	[2dd\
=43	=43	=43	=43	=43	=43
!!linebreak:default
1G	0G	1d	2.B-\	1G]	4dd\]
.	.	.	.	.	4cc\
.	.	.	.	.	4b-\
.	.	.	4c\	.	4a/
1GG	.	1d	2d\	2r	2b-\
.	.	.	2G/	[2d\	2b-\
=44	=44	=44	=44	=44	=44
1D	0F	0f	2A/	2d\]	1a
.	.	.	2D/	4c\	.
.	.	.	.	4B-\	.
2D\	.	.	2F/	2A/	1r
[2D\	.	.	2D/	[2B-\	.
=45	=45	=45	=45	=45	=45
4D\]	0r	0d	4F/	4B-\]	0r
4C/	.	.	4E/	4A/	.
4BB-/	.	.	4D/	1A	.
4AA/	.	.	4C/	.	.
2BB-/	.	.	2.D/	.	.
2BB-/	.	.	.	2G/	.
.	.	.	4E/	.	.
=46	=46	=46	=46	=46	=46
0AA	0r	0c	2.F/	0A	1r
.	.	.	4G/	.	.
.	.	.	2E/	.	1cc
.	.	.	2A/	.	.
=47	=47	=47	=47	=47	=47
0r	0r	0r	2F/	1r	1dd
.	.	.	2G/	.	.
.	.	.	1E	1c	1g
=48	=48	=48	=48	=48	=48
0r	0r	0r	1D	1d	2r
.	.	.	.	.	2dd\
.	.	.	2r	1G	2dd\
.	.	.	2d\	.	[2dd\
=49	=49	=49	=49	=49	=49
!!pagebreak:default
0r	0r	0r	1d	2r	4dd\]
.	.	.	.	.	4cc\
.	.	.	.	2d\	4b-\
.	.	.	.	.	4a/
.	.	.	1G	2d\	2b-\
.	.	.	.	[2d\	2b-\
=50	=50	=50	=50	=50	=50
0r	0r	0r	1r	4d\]	1a
.	.	.	.	4c\	.
.	.	.	.	4B-\	.
.	.	.	.	4A/	.
.	.	.	2r	2B-\	1dd
.	.	.	2d\	2B-\	.
=51	=51	=51	=51	=51	=51
0r	0A	0r	2e\	2A/	2cc\
.	.	.	2.f\	2F/	2a/
.	.	.	.	2.A/	1cc
.	.	.	4e\	.	.
.	.	.	2c\	.	.
.	.	.	.	4G/	.
=52	=52	=52	=52	=52	=52
0r	0B-	0r	2d\	2.G/	2.b-\
.	.	.	2G/	.	.
.	.	.	.	4F/	4a/
.	.	.	1d	2D/	2f/
.	.	.	.	2G/	[2g/
=53	=53	=53	=53	=53	=53
1r	0c	0e	2.c\	1C	4g/]
.	.	.	.	.	4f/
.	.	.	.	.	4e/
.	.	.	4B-\	.	4d/
1C	.	.	1G	2r	1e
.	.	.	.	2C/	.
=54	=54	=54	=54	=54	=54
*	*	*	*	*M2/1	*
*	*	*	*	*met(3)	*
1D	1B-	0f	0F	3F/	0d
.	.	.	.	3D/	.
.	.	.	.	3E/	.
1D	1A	.	.	3.F/	.
.	.	.	.	6G/	.
.	.	.	.	3A/	.
=55	=55	=55	=55	=55	=55
!!linebreak:default
*	*	*	*	*M2/1	*
*	*	*	*	*met(C|)	*
2GG/	1r	0g	2r	2B-\	0r
2GG/	.	.	2B-\	4G/	.
.	.	.	.	4A/	.
2GG/	1G	.	2G/	4B-\	.
.	.	.	.	4c\	.
2GG/	.	.	2B-\	[2d\	.
=56	=56	=56	=56	=56	=56
1D	1A	1f	2A/	4d\]	1r
.	.	.	.	4e\	.
.	.	.	2F/	4f\	.
.	.	.	.	4d\	.
2.C/	1c	1e	2G/	2e\	2r
.	.	.	2E/	2c\	2g/
4BB-/	.	.	.	.	.
=57	=57	=57	=57	=57	=57
1GG	2B-\	1r	2.G/	0d	2g/
.	2G/	.	.	.	2g/
.	.	.	4F/	.	.
1r	1A	1d	2D/	.	4f/
.	.	.	.	.	4g/
.	.	.	2F/	.	4a/
.	.	.	.	.	4f/
=58	=58	=58	=58	=58	=58
2r	0G	1e	2E/	1r	0g
2G\	.	.	4C/	.	.
.	.	.	4D/	.	.
2C/	.	1g	4E/	2r	.
.	.	.	4F/	.	.
2E\	.	.	4G/	2G/	.
.	.	.	4E/	.	.
=59	=59	=59	=59	=59	=59
2D\	0r	2f\	2F/	2A/	0r
2GG/	.	2d\	2G/	2B-\	.
*	*	*	*	*M2/1	*
*	*	*	*	*met(3)	*
2.C/	.	1e	2.E/	3c\	.
.	.	.	.	3G/	.
.	.	.	.	3c\	.
4BB-/	.	.	4F/	.	.
=60	=60	=60	=60	=60	=60
*	*	*	*	*M2/1	*
*	*	*	*	*met(C|)	*
0GG	1r	0d	2.G/	2B-\	0r
.	.	.	.	1G	.
.	.	.	4A/	.	.
.	1G	.	4B-\	.	.
.	.	.	4c\	.	.
.	.	.	[2d\	4F/	.
.	.	.	.	4E/	.
=61	=61	=61	=61	=61	=61
!!pagebreak:default
0r	1A	0r	4d\]	1D	1r
.	.	.	4e\	.	.
.	.	.	4f\	.	.
.	.	.	4d\	.	.
.	1c	.	2e\	1C	2r
.	.	.	2c\	.	2g/
=62	=62	=62	=62	=62	=62
0r	2B-\	1r	0d	2.G/	2g/
.	2G/	.	.	.	2g/
.	.	.	.	4F/	.
.	1A	1d	.	2D/	4f/
.	.	.	.	.	4g/
.	.	.	.	2F/	4a/
.	.	.	.	.	4f/
=63	=63	=63	=63	=63	=63
2r	0G	1e	1r	2E/	0g
2G\	.	.	.	4C/	.
.	.	.	.	4D/	.
2C/	.	1g	2r	4E/	.
.	.	.	.	4F/	.
2E\	.	.	2G/	4G/	.
.	.	.	.	4E/	.
=64	=64	=64	=64	=64	=64
2D\	0r	2f\	2A/	2F/	0r
2GG/	.	2d\	2B-\	2G/	.
2.C/	.	1e	2G/	2.E/	.
.	.	.	2c\	.	.
4BB-/	.	.	.	4F/	.
=65	=65	=65	=65	=65	=65
*	*	*	*M2/1	*	*M2/1
*	*	*	*met(3)	*	*met(3)
0GG	0r	0d	3%4B-	0G	3%2dd
.	.	.	.	.	3%2dd
.	.	.	3%2r	.	3%2b-
=66	=66	=66	=66	=66	=66
0r	0r	0r	3%2d	0r	3%2a
.	.	.	3%2d	.	3%4dd
.	.	.	3%2B-	.	.
=67	=67	=67	=67	=67	=67
!!linebreak:default
0r	0r	0r	3%2A	0r	3%2cc
.	.	.	3%4d	.	3%2a
.	.	.	.	.	3%2b-
=68	=68	=68	=68	=68	=68
0r	0r	0r	3%2c	0r	3%4a
.	.	.	3%2A	.	.
.	.	.	3%2B-	.	3%2r
=69	=69	=69	=69	=69	=69
0r	0r	0r	3%4A	0r	3%2cc
.	.	.	.	.	3%2cc
.	.	.	3%2r	.	3%2a
=70	=70	=70	=70	=70	=70
0r	0r	0r	3%2c	0r	3%2g
.	.	.	3%2c	.	3%4cc
.	.	.	3%2A	.	.
=71	=71	=71	=71	=71	=71
0r	0r	0r	3%2G	0r	3%2b-
.	.	.	3%4c	.	3%2g
.	.	.	.	.	3%2a
=72	=72	=72	=72	=72	=72
0r	0r	0r	3%2B-	0r	3%4g
.	.	.	3%2G	.	.
.	.	.	3%2A	.	3%2r
=73	=73	=73	=73	=73	=73
!!pagebreak:default
0r	0r	0r	3%4G	0r	3%2dd
.	.	.	.	.	3%2dd
.	.	.	3%2r	.	3%2b-
=74	=74	=74	=74	=74	=74
0r	0r	0r	3%2d	0r	3%2a
.	.	.	3%2d	.	3%4dd
.	.	.	3%2B-	.	.
=75	=75	=75	=75	=75	=75
0r	0r	0r	3%2A	0r	3%2cc
.	.	.	3%4d	.	3%2a
.	.	.	.	.	3%2b-
=76	=76	=76	=76	=76	=76
0r	0r	0r	3%2c	0r	3%4a
.	.	.	3%2A	.	.
.	.	.	3%2B-	.	3%2r
=77	=77	=77	=77	=77	=77
0r	0r	0r	3%4A	0r	3%2cc
.	.	.	.	.	3%2cc
.	.	.	3%2r	.	3%2a
=78	=78	=78	=78	=78	=78
0r	0r	0r	3%2c	0r	3%2g
.	.	.	3%2c	.	3%4cc
.	.	.	3%2A	.	.
=79	=79	=79	=79	=79	=79
!!linebreak:default
0r	0r	0r	3%2G	0r	3%2b-
.	.	.	3%4c	.	3%2.a
.	.	.	.	.	3g/
=80	=80	=80	=80	=80	=80
0r	0r	0r	3%2B-	0r	3%4g
.	.	.	3%2G	.	.
.	.	.	3%2A	.	3%2f#i
=81	=81	=81	=81	=81	=81
*	*	*	*M2/1	*	*M2/1
*	*	*	*met(C|)	*	*met(C|)
0r	0r	0r	0G	1r	0g
.	.	.	.	2r	.
.	.	.	.	2g\	.
=82	=82	=82	=82	=82	=82
0r	0r	0r	0r	2g\	2r
.	.	.	.	2g\	2dd\
.	.	.	.	2f\	2dd\
.	.	.	.	2d\	2dd\
=83	=83	=83	=83	=83	=83
0r	0r	0r	0r	2e\	1cc
.	.	.	.	2f\	.
.	.	.	.	2g\	2b-\
.	.	.	.	4c\	[2cc\
.	.	.	.	4d\	.
=84	=84	=84	=84	=84	=84
0r	0r	0r	0r	4e\	4cc\]
.	.	.	.	4f\	4b-\
.	.	.	.	2.g\	4a/
.	.	.	.	.	4g/
.	.	.	.	.	2a/
.	.	.	.	4f#i\	.
.	.	.	.	4f#i\	2a/
.	.	.	.	4e\	.
=85	=85	=85	=85	=85	=85
!!pagebreak:default
0r	0r	0r	1r	2g\	2g/
.	.	.	.	4G/	1b-
.	.	.	.	4A/	.
.	.	.	1G	4B-\	.
.	.	.	.	4c\	.
.	.	.	.	4d\	4a/
.	.	.	.	4e\	4g/
=86	=86	=86	=86	=86	=86
2r	0F	0r	2d\	0f	0a
2D\	.	.	2d\	.	.
2D\	.	.	2.A/	.	.
2D\	.	.	.	.	.
.	.	.	4B-\	.	.
=87	=87	=87	=87	=87	=87
1C	0G	0r	2c\	0r	0r
.	.	.	2C/	.	.
2BB-/	.	.	2D/	.	.
[2C/	.	.	[2E/	.	.
=88	=88	=88	=88	=88	=88
4C/]	0c	0c	4E/]	0r	1r
4BB-/	.	.	4F/	.	.
4AA/	.	.	2.G/	.	.
4GG/	.	.	.	.	.
2AA/	.	.	.	.	1a
.	.	.	4F#i/	.	.
2AA/	.	.	4F#i/	.	.
.	.	.	4E/	.	.
=89	=89	=89	=89	=89	=89
[0GG	[0B-	0d	[0G	1r	2b-\
.	.	.	.	.	2g/
.	.	.	.	1d	2dd\
.	.	.	.	.	2g/
=90	=90	=90	=90	=90	=90
0GG]	0B-]	0g	0G]	2G/	4b-\
.	.	.	.	.	4a/
.	.	.	.	2d\	4g/
.	.	.	.	.	4f/
.	.	.	.	2G/	4g/
.	.	.	.	.	4a/
.	.	.	.	[2d\	4b-\
.	.	.	.	.	4g/
=91	=91	=91	=91	=91	=91
!!linebreak:default
1r	0A	[0f	0D	2d\]	0a
.	.	.	.	4c\	.
.	.	.	.	4B-\	.
1D	.	.	.	2A/	.
.	.	.	.	[2d\	.
=92	=92	=92	=92	=92	=92
1D	0r	0f]	1F	4d\]	0r
.	.	.	.	4c\	.
.	.	.	.	2d\	.
1D	.	.	2F/	2.A/	.
.	.	.	2F/	.	.
.	.	.	.	4B-\	.
=93	=93	=93	=93	=93	=93
1C	1r	0e	1G	0c	0r
1AA	1A	.	1A	.	.
=94	=94	=94	=94	=94	=94
1.D	1A	0r	2.F/	1.f	2r
.	.	.	.	.	2.a/
.	.	.	4G/	.	.
.	1A	.	1A	.	.
.	.	.	.	.	4b-\
2C/	.	.	.	2e\	2cc\
=95	=95	=95	=95	=95	=95
1BB-	2B-\	1r	1D	1d	2dd\
.	2G/	.	.	.	2b-\
1AA	1A	1e	1E	1c	[1cc
=96	=96	=96	=96	=96	=96
1C	0G	1e	0r	2r	2cc\]
.	.	.	.	2c\	4b-\
.	.	.	.	.	4a/
2C/	.	2e\	.	2c\	1g
2C/	.	2e\	.	2c\	.
=97	=97	=97	=97	=97	=97
!!pagebreak:default
1D	0r	2f\	1r	4A/	1f
.	.	.	.	4G/	.
.	.	2d\	.	4A/	.
.	.	.	.	4B-\	.
1AA	.	1e	1E	2c\	2r
.	.	.	.	[2A/	2cc\
=98	=98	=98	=98	=98	=98
1.D	1r	0d	1F	4A/]	1.dd
.	.	.	.	4G/	.
.	.	.	.	4F/	.
.	.	.	.	4E/	.
.	1A	.	1F	2D/	.
2D\	.	.	.	2d\	2dd\
=99	=99	=99	=99	=99	=99
2.AA/	1A	0r	2.E/	2e\	1cc
.	.	.	.	2c\	.
4BB-/	.	.	4D/	.	.
2C/	1A	.	2E/	2c\	1r
2D\	.	.	2F/	2A/	.
=100	=100	=100	=100	=100	=100
1BB-	2B-\	1r	1D	2.d\	2r
.	2G/	.	.	.	2b-\
.	.	.	.	4d\	.
1AA	1A	1e	[1E	1c	4cc\
.	.	.	.	.	4a/
.	.	.	.	.	[2cc\
=101	=101	=101	=101	=101	=101
1C	0G	1e	1E]	2r	2cc\]
.	.	.	.	2c\	4b-\
.	.	.	.	.	4a/
2C/	.	2e\	2r	2c\	1g
2C/	.	2e\	2E/	2c\	.
=102	=102	=102	=102	=102	=102
1D	0r	2f\	2D/	1A	2f/
.	.	2d\	2F/	.	2f/
2.C/	.	1e	2E/	1c	2.g/
.	.	.	2C/	.	.
4BB-/	.	.	.	.	4a/
=103	=103	=103	=103	=103	=103
!!linebreak:default
2GG/	1r	0d	1G	2B-\	4b-\
.	.	.	.	.	4cc\
1G	.	.	.	2G/	1b-
.	2r	.	1r	2.B-\	.
4F\	2G/	.	.	.	4a/
4E\	.	.	.	4c\	4g/
=104	=104	=104	=104	=104	=104
2D\	2A/	0r	2r	2d\	2f/
2E-\	2G/	.	2C/	2c\	1g
1D	1A	.	2.F/	1d	.
.	.	.	.	.	2f#i/
.	.	.	4D/	.	.
=105	=105	=105	=105	=105	=105
0GG	[0Gl	1r	2E-i/	1B-	[0gl
.	.	.	2D/	.	.
.	.	2r	2E-i/	2r	.
.	.	2d\	2D/	2B-\	.
=106	=106	=106	=106	=106	=106
2C/	0G_	2e-i\	2r	2c\	0g_
2BB-/	.	2d\	2G/	2d\	.
2.C/	.	1e-i	2E-i/	2.G/	.
.	.	.	2C/	.	.
4C/	.	.	.	4A/	.
=107	=107	=107	=107	=107	=107
[0GGl	0G_	[0dl	1.G	[0B-l	0g_
.	.	.	2G/	.	.
=108	=108	=108	=108	=108	=108
0GG]	0G]	0d]	0Dl	0B-]	0g]
!!LO:LB:i:g=z
=109||	=109||	=109||	=109||	=109||	=109||
!!pagebreak:default
*>B	*>B	*>B	*>B	*>B	*>B
!!section: Secunda pars: Audi virgo puerpera
!!OMD: Secunda pars: Audi virgo puerpera
*M2/1	*M2/1	*M2/1	*M2/1	*M2/1	*M2/1
*met(C|)	*met(C|)	*met(C|)	*met(C|)	*met(C|)	*met(C|)
0r	0r	0r	0r	1G	0r
.	.	.	.	1G	.
=110	=110	=110	=110	=110	=110
1GG	0r	0r	0r	1r	0r
1GG	.	.	.	2r	.
.	.	.	.	2D/	.
=111	=111	=111	=111	=111	=111
2r	0r	0r	0r	2D/	0r
2D\	.	.	.	2D/	.
2D\	.	.	.	2.F/	.
2D\	.	.	.	.	.
.	.	.	.	4G/	.
=112	=112	=112	=112	=112	=112
2.F\	0r	0r	0r	2A/	0r
.	.	.	.	4D/	.
4E\	.	.	.	4E/	.
2D\	.	.	.	4F/	.
.	.	.	.	4G/	.
2C/	.	.	.	[2A/	.
=113	=113	=113	=113	=113	=113
2BB-/	0r	0r	0r	4A/]	0r
.	.	.	.	4G/	.
2C/	.	.	.	1G	.
1AA	.	.	.	.	.
.	.	.	.	2F#i/	.
=114	=114	=114	=114	=114	=114
0GG	0r	0r	0r	0G	1g
.	.	.	.	.	1g
=115	=115	=115	=115	=115	=115
!!linebreak:default
0r	0r	0r	1G	0r	1r
.	.	.	1G	.	2r
.	.	.	.	.	2d/
=116	=116	=116	=116	=116	=116
0r	0r	0r	2r	0r	2d/
.	.	.	2d\	.	2d/
.	.	.	2d\	.	2.f/
.	.	.	2d\	.	.
.	.	.	.	.	4g/
=117	=117	=117	=117	=117	=117
0r	0r	0r	2.f\	0r	2a/
.	.	.	.	.	4d/
.	.	.	4e\	.	4e/
.	.	.	2d\	.	4f/
.	.	.	.	.	4g/
.	.	.	2c\	.	[2a/
=118	=118	=118	=118	=118	=118
0r	0r	0r	2.B-\	0r	4a/]
.	.	.	.	.	4g/
.	.	.	.	.	1g
.	.	.	4G/	.	.
.	.	.	2A/	.	.
.	.	.	2A/	.	2f#i/
=119	=119	=119	=119	=119	=119
1r	0r	0r	0G	2r	0g
.	.	.	.	2B-\	.
2r	.	.	.	2B-\	.
2G\	.	.	.	2B-\	.
=120	=120	=120	=120	=120	=120
2G\	0r	0r	0r	1B-	0r
2G\	.	.	.	.	.
2F\	.	.	.	2A/	.
2D\	.	.	.	[2f\	.
=121	=121	=121	=121	=121	=121
!!pagebreak:default
2.F\	0r	0r	0r	4f\]	0r
.	.	.	.	4e\	.
.	.	.	.	2.d\	.
4G\	.	.	.	.	.
1E	.	.	.	.	.
.	.	.	.	4c#i\	.
.	.	.	.	4c#i\	.
.	.	.	.	4Bni\	.
=122	=122	=122	=122	=122	=122
0D	0r	0r	1r	0d	2r
.	.	.	.	.	2a/
.	.	.	2r	.	2b-\
.	.	.	2d\	.	2a/
=123	=123	=123	=123	=123	=123
0r	0r	0r	2d\	0r	1b-
.	.	.	2d\	.	.
.	.	.	2c\	.	2a/
.	.	.	2A/	.	[2cc\
=124	=124	=124	=124	=124	=124
0r	0r	0r	2.c\	0r	4cc\]
.	.	.	.	.	4b-\
.	.	.	.	.	2.a/
.	.	.	4d\	.	.
.	.	.	1B-	.	.
.	.	.	.	.	4g/
.	.	.	.	.	4g/
.	.	.	.	.	4f/
=125	=125	=125	=125	=125	=125
1D	0r	0r	0A	1r	0a
1F	.	.	.	1D	.
=126	=126	=126	=126	=126	=126
2r	0r	0r	0r	1F	0r
2D\	.	.	.	.	.
[1F	.	.	.	2r	.
.	.	.	.	2D/	.
=127	=127	=127	=127	=127	=127
!!linebreak:default
2F\]	0r	0r	0r	2F/	0r
2E\	.	.	.	2G/	.
2D\	.	.	.	2A/	.
2C/	.	.	.	[2c\	.
=128	=128	=128	=128	=128	=128
2.D\	0r	0r	0r	4c\]	0r
.	.	.	.	4B-\	.
.	.	.	.	1B-	.
4E-i\	.	.	.	.	.
1C	.	.	.	.	.
.	.	.	.	2A/	.
=129	=129	=129	=129	=129	=129
0BB-	0r	0r	1d	0B-	1r
.	.	.	1f	.	1d
=130	=130	=130	=130	=130	=130
0r	0r	0r	2r	0r	1f
.	.	.	2d\	.	.
.	.	.	[1f	.	2r
.	.	.	.	.	2d/
=131	=131	=131	=131	=131	=131
0r	0r	0r	2f\]	0r	2f/
.	.	.	2e\	.	2g/
.	.	.	2d\	.	2a/
.	.	.	2c\	.	[2cc\
=132	=132	=132	=132	=132	=132
1r	0r	0r	2.d\	0r	4cc\]
.	.	.	.	.	4b-\
.	.	.	.	.	1b-
.	.	.	4e-i\	.	.
1F	.	.	1c	.	.
.	.	.	.	.	2a/
=133	=133	=133	=133	=133	=133
!!pagebreak:default
1G	0r	0r	1B-	0r	0b-
1G	.	.	2r	.	.
.	.	.	2B-\	.	.
=134	=134	=134	=134	=134	=134
1E	0r	0r	1c	0r	0r
2C/	.	.	1c	.	.
[2F\	.	.	.	.	.
=135	=135	=135	=135	=135	=135
4F\]	0r	0r	1A	0r	0r
4E\	.	.	.	.	.
4D\	.	.	.	.	.
4C/	.	.	.	.	.
1D	.	.	2F/	.	.
.	.	.	[2B-\	.	.
=136	=136	=136	=136	=136	=136
2BB-/	0r	0r	4B-\]	0r	0r
.	.	.	4A/	.	.
2C/	.	.	2.G/	.	.
1AA	.	.	.	.	.
.	.	.	4F#i/	.	.
.	.	.	4F#i/	.	.
.	.	.	4E/	.	.
=137	=137	=137	=137	=137	=137
1GG	0r	0r	0G	1d	1r
2r	.	.	.	2g\	1b-
2G\	.	.	.	2g\	.
=138	=138	=138	=138	=138	=138
1A	0r	0r	0r	1e	1cc
1A	.	.	.	2c\	1cc
.	.	.	.	[2f\	.
=139	=139	=139	=139	=139	=139
!!linebreak:default
1F	0r	0r	0r	4f\]	1a
.	.	.	.	4e\	.
.	.	.	.	4d\	.
.	.	.	.	4c\	.
2D\	.	.	.	1d	2f/
[2G\	.	.	.	.	[2b-\
=140	=140	=140	=140	=140	=140
2G\]	0r	0r	0r	2B-\	4b-\]
.	.	.	.	.	4a/
2C/	.	.	.	2c\	2.g/
1D	.	.	.	1A	.
.	.	.	.	.	4f#i/
.	.	.	.	.	4f#i/
.	.	.	.	.	4e/
=141	=141	=141	=141	=141	=141
0GG	1r	0r	0r	2.G/	1g
.	.	.	.	4A/	.
.	1G	.	.	2B-\	2r
.	.	.	.	2G/	2g/
=142	=142	=142	=142	=142	=142
0r	1G	0r	2r	1d	2g/
.	.	.	2G/	.	2.b-\
.	[1B-	.	2G/	1r	.
.	.	.	.	.	4a/
.	.	.	[2B-\	.	2f/
=143	=143	=143	=143	=143	=143
0r	2B-\]	1r	4B-\]	1d	2g/
.	.	.	4A/	.	.
.	2A/	.	2F/	.	2a/
.	1G	1d	1G	1d	1b-
=144	=144	=144	=144	=144	=144
2r	0F	1d	1D	2.f\	0a
2D\	.	.	.	.	.
.	.	.	.	4e\	.
2D\	.	[1f	2r	2d\	.
[2F\	.	.	[2A/	2c\	.
=145	=145	=145	=145	=145	=145
!!pagebreak:default
4F\]	0r	2f\]	4A/]	2d\	1r
4E\	.	.	4B-\	.	.
2C/	.	2e\	2c\	2e\	.
1D	.	1d	1F	1f	2r
.	.	.	.	.	2a/
=146	=146	=146	=146	=146	=146
1AA	0r	0c	2r	[0e	1cc
.	.	.	2A/	.	.
2r	.	.	1c	.	1cc
2AA/	.	.	.	.	.
=147	=147	=147	=147	=147	=147
1C	1G	0r	1c	0e]	1g
1C	1G	.	1G	.	2r
.	.	.	.	.	2g/
=148	=148	=148	=148	=148	=148
1GG	1G	0r	2r	1r	2g/
.	.	.	2G/	.	2.b-\
1r	[1B-	.	2G/	1d	.
.	.	.	.	.	4a/
.	.	.	[2B-\	.	2f/
=149	=149	=149	=149	=149	=149
0r	2B-\]	1d	4B-\]	1d	2g/
.	.	.	4A/	.	.
.	2A/	.	2F/	.	2a/
.	1G	1d	1G	1d	1b-
=150	=150	=150	=150	=150	=150
2r	0F	1d	1D	2.f\	0a
2D\	.	.	.	.	.
.	.	.	.	4e\	.
2D\	.	[1f	2r	2d\	.
[2F\	.	.	[2A/	2c\	.
=151	=151	=151	=151	=151	=151
!!linebreak:default
4F\]	0r	2f\]	4A/]	2d\	0r
4E\	.	.	4B-\	.	.
2C/	.	2e\	2c\	2e\	.
1D	.	1d	2.F/	1f	.
.	.	.	4G/	.	.
=152	=152	=152	=152	=152	=152
[0AA	0r	0c	2A/	0e	1r
.	.	.	4c\	.	.
.	.	.	4B-\	.	.
.	.	.	4A/	.	1cc
.	.	.	4G/	.	.
.	.	.	[2A/	.	.
=153	=153	=153	=153	=153	=153
0AA]	0r	0r	2A/]	2r	1cc
.	.	.	4G/	2e\	.
.	.	.	4F/	.	.
.	.	.	2E/	2e\	1cc
.	.	.	2A/	2e\	.
=154	=154	=154	=154	=154	=154
0r	0r	0r	2D/	2.f\	2.dd\
.	.	.	2.B-\	.	.
.	.	.	.	4e\	4cc\
.	.	.	.	2d\	2b-\
.	.	.	4A/	.	.
.	.	.	2F/	2c\	[2a/
=155	=155	=155	=155	=155	=155
0r	0r	0r	2G/	2.B-\	4a/]
.	.	.	.	.	4g/
.	.	.	2E/	.	1g
.	.	.	.	4G/	.
.	.	.	1D	2A/	.
.	.	.	.	2A/	2f#i/
=156	=156	=156	=156	=156	=156
1r	0r	0r	2r	0G	1g
.	.	.	2d\	.	.
1G	.	.	2G/	.	1b-
.	.	.	2d\	.	.
=157	=157	=157	=157	=157	=157
!!pagebreak:default
1G	0r	0r	4G/	2r	1b-
.	.	.	4A/	.	.
.	.	.	4B-\	2d\	.
.	.	.	4c\	.	.
1G	.	.	2d\	2G/	1b-
.	.	.	2G/	2d\	.
=158	=158	=158	=158	=158	=158
1.A	0r	0r	2r	2c\	1.cc
.	.	.	2.c\	4A/	.
.	.	.	.	4B-\	.
.	.	.	.	4c\	.
.	.	.	4A/	4d\	.
2G\	.	.	2B-\	[2e\	2b-\
=159	=159	=159	=159	=159	=159
2.F\	0r	0r	2c\	4e\]	2a/
.	.	.	.	4d\	.
.	.	.	2d\	1d	2f/
4D\	.	.	.	.	.
1E	.	.	1G	.	1g
.	.	.	.	2c#i\	.
=160	=160	=160	=160	=160	=160
0D	1r	0r	0A	0d	0f
.	1A	.	.	.	.
=161	=161	=161	=161	=161	=161
1r	1B-	0r	0r	0r	1d
1C	1c	.	.	.	1e
=162	=162	=162	=162	=162	=162
2G\	1d	1r	0r	2r	1d
2D\	.	.	.	2d\	.
1E	2r	1e	.	2c\	1g
.	2G/	.	.	2c\	.
=163	=163	=163	=163	=163	=163
!!linebreak:default
2F\	2A/	1f	2r	1d	0r
2BB-/	1B-	.	2d\	.	.
2E-\	.	1g	2B-\	1r	.
2E-i\	2G/	.	2c\	.	.
=164	=164	=164	=164	=164	=164
1D	1A	1f	1d	2r	1r
.	.	.	.	2A/	.
1GG	1G	2r	1r	2B-\	2r
.	.	2d\	.	2B-\	2dd\
=165	=165	=165	=165	=165	=165
0r	0r	2e\	2r	1A	4cc\
.	.	.	.	.	4b-\
.	.	1f	2A/	.	4a/
.	.	.	.	.	4g/
.	.	.	2F/	1D	4a/
.	.	.	.	.	4d/
.	.	2d\	2B-\	.	[2dd\
=166	=166	=166	=166	=166	=166
0r	0r	1e	1A	0r	2dd\]
.	.	.	.	.	2cc#i\
.	.	1d	4D/	.	1dd
.	.	.	4E/	.	.
.	.	.	4F/	.	.
.	.	.	4G/	.	.
=167	=167	=167	=167	=167	=167
0r	0r	0r	2A/	1D	0r
.	.	.	1B-	.	.
.	.	.	.	2D/	.
.	.	.	4A/	2D/	.
.	.	.	4G/	.	.
=168	=168	=168	=168	=168	=168
1D	0r	0r	1A	2F/	0r
.	.	.	.	2D/	.
2D\	.	.	1r	2.F/	.
2D\	.	.	.	.	.
.	.	.	.	4G/	.
=169	=169	=169	=169	=169	=169
!!pagebreak:default
2F\	0r	0r	1D	2A/	0r
2D\	.	.	.	2B-\	.
2.F\	.	.	2D/	1A	.
.	.	.	2D/	.	.
4G\	.	.	.	.	.
=170	=170	=170	=170	=170	=170
2A\	0r	0r	2F/	1r	0r
2B-\	.	.	2D/	.	.
1A	.	.	2.F/	2r	.
.	.	.	.	2D/	.
.	.	.	4G/	.	.
=171	=171	=171	=171	=171	=171
1D	0r	0r	2A/	2F/	0r
.	.	.	2B-\	2D/	.
2D\	.	.	2A/	2.F/	.
2D\	.	.	2d\	.	.
.	.	.	.	4G/	.
=172	=172	=172	=172	=172	=172
2.F\	0r	0r	2c\	2A/	0r
.	.	.	2A/	2.D/	.
4E\	.	.	.	.	.
4D\	.	.	2B-\	.	.
4C/	.	.	.	4E/	.
2D\	.	.	2A/	2F/	.
=173	=173	=173	=173	=173	=173
2BB-/	1r	0r	2B-\	2D/	1r
2C/	.	.	2G/	2E/	.
1AA	1F	.	1A	1C	2r
.	.	.	.	.	2a/
=174	=174	=174	=174	=174	=174
1GG	1G	0r	1r	1D	2b-\
.	.	.	.	.	2g/
1r	1c	.	1F	2r	1a
.	.	.	.	2A/	.
=175	=175	=175	=175	=175	=175
!!linebreak:default
0r	1B-	1r	1G	2B-\	1g
.	.	.	.	2G/	.
.	1A	1c	1c	1A	2r
.	.	.	.	.	2a/
=176	=176	=176	=176	=176	=176
1.GG	0r	1d	1.B-	1G	2b-\
.	.	.	.	.	2g/
.	.	1g	.	2r	1b-
2GG/	.	.	4A/	2d\	.
.	.	.	4G/	.	.
=177	=177	=177	=177	=177	=177
1D	2r	1f	2A/	1d	1a
.	2A/	.	2D/	.	.
1AA	2A/	1e	2E/	1c	2r
.	2A/	.	2C/	.	[2a/
=178	=178	=178	=178	=178	=178
0r	2B-\	0r	1G	1d	4a/]
.	.	.	.	.	4g/
.	2G/	.	.	.	1g
.	2A/	.	1D	2r	.
.	2A/	.	.	2d\	2f#i/
=179	=179	=179	=179	=179	=179
2r	0G	2r	1r	2B-\	0g
2C/	.	2e\	.	2G/	.
2C/	.	2e\	2r	1c	.
2C/	.	2e\	2G/	.	.
=180	=180	=180	=180	=180	=180
2D\	1r	2f\	2F/	2A/	0r
2BB-/	.	2d\	2G/	2B-\	.
2.C/	1c	2e\	2.E/	1G	.
.	.	2e\	.	.	.
4BB-/	.	.	4F/	.	.
=181	=181	=181	=181	=181	=181
!!pagebreak:default
2GG/	1B-	0d	1G	1r	0r
2G\	.	.	.	.	.
2F\	2A/	.	1r	1d	.
[2G\	[2B-\	.	.	.	.
=182	=182	=182	=182	=182	=182
4G\]	4B-\]	1r	2r	1B-	0r
4F\	4A/	.	.	.	.
4E\	4G/	.	2G/	.	.
4D\	4F/	.	.	.	.
1E	1G	1g	2G/	1c	.
.	.	.	2C/	.	.
=183	=183	=183	=183	=183	=183
1D	1A	1f	1F	2d\	1r
.	.	.	.	2A/	.
2r	1r	2e\	1r	2c\	2r
[2D\	.	[2f\	.	[2F/	2a/
=184	=184	=184	=184	=184	=184
2D\]	0r	4f\]	1.A	4F/]	1dd
.	.	4e\	.	4G/	.
2D\	.	4d\	.	2A/	.
.	.	4c\	.	.	.
1D	.	1d	.	1D	1dd
.	.	.	2A/	.	.
=185	=185	=185	=185	=185	=185
0AA	2r	1e	1A	0A	2.cc\
.	2c\	.	.	.	.
.	.	.	.	.	4b-\
.	2c\	1r	2E/	.	4a/
.	.	.	.	.	4g/
.	[2c\	.	[2F/	.	[2a/
=186	=186	=186	=186	=186	=186
0r	4c\]	0r	2F/]	1r	4a/]
.	4B-\	.	.	.	4g/
.	4A/	.	2G/	.	2.g/
.	4G/	.	.	.	.
.	1A	.	1D	1d	.
.	.	.	.	.	4f#i/
.	.	.	.	.	4f#i/
.	.	.	.	.	4e/
=187	=187	=187	=187	=187	=187
!!linebreak:default
1r	[0Gl	2r	2G/	2B-\	[0gl
.	.	2g\	2C/	2c\	.
[1C	.	2g\	2E/	2G/	.
.	.	[2g\	2C/	[2c\	.
=188	=188	=188	=188	=188	=188
2C/]	0G_	4g\]	1G	2c\]	0g_
.	.	4f\	.	.	.
2C/	.	4e\	.	2c\	.
.	.	4d\	.	.	.
1C	.	1e	2r	1c	.
.	.	.	[2G/	.	.
=189	=189	=189	=189	=189	=189
[0GGl	0G_	[0dl	2G/]	[0B-l	0g_
.	.	.	2G/	.	.
.	.	.	1G	.	.
=190	=190	=190	=190	=190	=190
0GG]	0G]	0d]	0Dl	0B-]	0g]
==	==	==	==	==	==
*-	*-	*-	*-	*-	*-
!!!RDF**kern: l=long note in original notation
!!!RDF**kern: i=musica ficta
!!!ENC:	Jesse Rodin; Victoria Chang 2011/05/22
!!!END:	2011/05/22/
!!!EED:	Jesse Rodin
!!!EEV:	2011/08/15/
!!!ONB:	Translated from MusicXML and edited on 2011/08/15/ by Craig Sapp
!!muse2ps: u^(2) @{OTL2}^C^@{COM}\n@{SCT}^i2I150v100,100,100,100,100,120c100Q16
